X:100
T:Crazy Creek
C:Tony WIlliamson (verse)
N:Transcribed by Larry Tanner
R:bluegrass
L:1/8
Q:1/4=225
M:4/4
K:C
z6 ^CD | 
K:A
|: E2 EA FE DF | EF Ac (3BcB AF | EF Ac BA cd | "C"[e2e2] [ee]e [e2e2] ef | =g=c' ag ed =ce | 
d=c Ac A=G ED | =CB, CD ED CD | "E"EG Bc eB G2 | e=g ed =cB (3ABA |1 A6 CD :|2 A4 [e4A4E4] | 
"F"z2 =FE D=G ED | AE D=G GD =FD | "C"ED ED E=G E=G, | =CE DC A,=G, C=F | "F"D=F =G=c Ac d=f | 
e=f e=c cA cA | "C"A=c2A cB A=G | "E"Bd ed BA GF :|3 A8 | 


